static/img/icons/container.svg

<svg fill="none" height="26" viewBox="0 0 26 26" width="26" xmlns="http://www.w3.org/2000/svg"><g stroke="#fff" stroke-linejoin="round" stroke-width="1.5"><path d="m19.6 1c1.7552.19429 2.9366.63338 3.8184 1.62575 1.5816 1.77994 1.5816 4.6447 1.5816 10.37425 0 5.7296 0 8.5943-1.5816 10.3743-.8818.9924-2.0632 1.4314-3.8184 1.6257m-13.19999 0c-1.75516-.1943-2.93659-.6333-3.81838-1.6257-1.58163-1.78-1.58163-4.6447-1.58163-10.3743 0-5.72955 0-8.59431 1.58163-10.37425.88179-.99237 2.06322-1.43146 3.81838-1.62575" stroke-linecap="round"/><path d="m13 18.8334c.1745 0 .3367-.0825.6612-.2474l2.6078-1.3253c1.154-.5864 1.731-.8797 1.731-1.344v-5.8333m-5 8.75c-.1745 0-.3367-.0825-.6612-.2474l-2.60782-1.3253c-1.15399-.5864-1.73098-.8797-1.73098-1.344v-5.8333m5 8.75v-5.8334m5-2.9166c0-.4644-.577-.75762-1.731-1.34408l-2.6078-1.32531c-.3245-.16488-.4867-.24732-.6612-.24732s-.3367.08244-.6612.24732l-2.60782 1.32531c-1.15399.58646-1.73098.87968-1.73098 1.34408m10 0c0 .4643-.577.7575-1.731 1.344l-2.6078 1.3253c-.3245.1649-.4867.2473-.6612.2473m-5-2.9166c0 .4643.57699.7575 1.73098 1.344l2.60782 1.3253c.3245.1649.4867.2473.6612.2473"/><path d="m13.9917 20.98 3.9118-1.8932c1.731-.8379 2.5965-1.2568 2.5965-1.9201v-8.33335c0-.66335-.8655-1.08225-2.5965-1.92005l-3.9118-1.89329c-.4866-.23554-.73-.35332-.9917-.35332-.2618 0-.5051.11777-.9917.35332l-3.91183 1.89329c-1.73098.8378-2.59647 1.2567-2.59647 1.92005v8.33335c0 .6633.86548 1.0822 2.59643 1.92l3.91187 1.8933c.4866.2356.7299.3534.9917.3534.2617 0 .5051-.1178.9917-.3534z"/></g></svg>

<svg width="26" height="26" viewBox="0 0 26 26" fill="none" xmlns="http://www.w3.org/2000/svg">
<path d="M19.6 1C21.3552 1.19429 22.5366 1.63338 23.4184 2.62575C25 4.40569 25 7.27045 25 13C25 18.7296 25 21.5943 23.4184 23.3743C22.5366 24.3667 21.3552 24.8057 19.6 25M6.40001 25C4.64485 24.8057 3.46342 24.3667 2.58163 23.3743C1 21.5943 1 18.7296 1 13C1 7.27045 1 4.40569 2.58163 2.62575C3.46342 1.63338 4.64485 1.19429 6.40001 1" stroke="white" stroke-width="1.5" stroke-linecap="round" stroke-linejoin="round"/>
<path d="M13 18.8334C13.1745 18.8334 13.3367 18.7509 13.6612 18.586L16.269 17.2607C17.423 16.6743 18 16.381 18 15.9167V10.0834M13 18.8334C12.8255 18.8334 12.6633 18.7509 12.3388 18.586L9.73098 17.2607C8.57699 16.6743 8 16.381 8 15.9167V10.0834M13 18.8334V13M18 10.0834C18 9.619 17.423 9.32578 16.269 8.73932L13.6612 7.41401C13.3367 7.24913 13.1745 7.16669 13 7.16669C12.8255 7.16669 12.6633 7.24913 12.3388 7.41401L9.73098 8.73932C8.57699 9.32578 8 9.619 8 10.0834M18 10.0834C18 10.5477 17.423 10.8409 16.269 11.4274L13.6612 12.7527C13.3367 12.9176 13.1745 13 13 13M8 10.0834C8 10.5477 8.57699 10.8409 9.73098 11.4274L12.3388 12.7527C12.6633 12.9176 12.8255 13 13 13" stroke="white" stroke-width="1.5" stroke-linejoin="round"/>
<path d="M13.9917 20.98L17.9035 19.0868C19.6345 18.2489 20.5 17.83 20.5 17.1667V8.83335C20.5 8.17 19.6345 7.7511 17.9035 6.9133L13.9917 5.02001C13.5051 4.78447 13.2617 4.66669 13 4.66669C12.7382 4.66669 12.4949 4.78446 12.0083 5.02001L8.09647 6.9133C6.36549 7.7511 5.5 8.17 5.5 8.83335V17.1667C5.5 17.83 6.36548 18.2489 8.09643 19.0867L12.0083 20.98C12.4949 21.2156 12.7382 21.3334 13 21.3334C13.2617 21.3334 13.5051 21.2156 13.9917 20.98Z" stroke="white" stroke-width="1.5" stroke-linejoin="round"/>
</svg>
